X: 1015
T: A Theater Tune
%R: jig
B: Henry Playford "Apollo's Banquet", London 1687 (5th Edition)
F: https://archive.org/details/apollosbanquetco01rugg
Z: 2017 John Chambers <jc:trillian.mit.edu>
M: 6/4
L: 1/4
K: D
% - - - - - - - - - -
|:\
d2A B2F | GEA F>ED | f2g e2a | b^g2 a3 |\
efd c>de | Bcd F>GA | dB2 ge2 | e2d d3 :|
|:\
a>gf e>fg | f>ed c3 | def cde | B>A^G A2d |\
Bcd e2a | f>ga b2a | gef B2c | d>ec d3 |]
% - - - - - - - - - -

%%sep 1 1 500
%%sep 1 1 500

